X: 272
T:Mittit ad virginem / Accede, nuntia
N: Derived from Jos2406-Mittit_ad_virginem.krn
C: Josquin des Prez
%%abc-version 2.0
%%abcx-abcm2ps-target-version 5.9.1 (29 Sep 2008)
%%abc-creator hum2abc beta
%%abcx-conversion-date 2019/02/12 16:15:52
%%abc-edited-by Jesse Rodin
%%abc-edited-by Jesse Rodin; Victoria Chang 2011/05/17
%%abcx-initial-encoding-date 2011/05/17/
%%humdrum-veritas 962147840
%%humdrum-veritas-data 833730293
%%linebreak <none>
%%barnumbers 0
L: 1/4
M: 2/1
Q: 1/2=120
%%staves [1 2 3 4]
V: 1 clef=treble
V: 2 clef=treble-8
V: 3 clef=treble-8
V: 4 clef=bass
K: C
[V:1] z4G4 | 
[V:2] G4c4- | 
[V:3] z8 | 
[V:4] z8 | 
[V:1] c8 | 
[V:2] c2d2e2f2- | 
[V:3] z8 | 
[V:4] z8 | 
[V:1] c4d4 | 
[V:2] fea2g2f2- | 
[V:3] z8 | 
[V:4] z8 | 
[V:1] c4B4 | 
[V:2] fedcd4 | 
[V:3] z8 | 
[V:4] z8 | 
[V:1] c8 | 
[V:2] c6BA | 
[V:3] z8 | 
[V:4] z8 | 
[V:1] d4e4- | 
[V:2] B2G4cd | 
[V:3] z8 | 
[V:4] z8 | 
[V:1] e4d3e | 
[V:2] efg4f2 | 
[V:3] z8 | 
[V:4] z8 | 
[V:1] f2e3dc2- | 
[V:2] a2g2c4 | 
[V:3] z8 | 
[V:4] z8 | 
[V:1] c2B2c4- | 
[V:2] d4c4 | 
[V:3] z8 | 
[V:4] z8 | 
[V:1] c4e4 | 
[V:2] z2e3fga | 
[V:3] z8 | 
[V:4] z8 | 
[V:1] g8 | 
[V:2] g2c4g2 | 
[V:3] z8 | 
[V:4] z8 | 
[V:1] f4e3d/e/ | 
[V:2] a2f2a2g2- | 
[V:3] z8 | 
[V:4] z8 | 
[V:1] d2c4B2 | 
[V:2] gfecd4 | 
[V:3] z8 | 
[V:4] z8 | 
[V:1] c8 | 
[V:2] c6B2 | 
[V:3] z8 | 
[V:4] z8 | 
[V:1] c4d4- | 
[V:2] A4G3A | 
[V:3] z8 | 
[V:4] z8 | 
[V:1] d4B4 | 
[V:2] Bcd3Be2- | 
[V:3] z8 | 
[V:4] z8 | 
[V:1] c4B2G2 | 
[V:2] eda3gg2- | 
[V:3] z8 | 
[V:4] z8 | 
[V:1] A4G4- | 
[V:2] g2^f2g4- | 
[V:3] z8 | 
[V:4] z8 | 
[V:1] G4d4 | 
[V:2] g2fef2g2 | 
[V:3] z8 | 
[V:4] z8 | 
[V:1] d8 | 
[V:2] d2g3efg | 
[V:3] z8 | 
[V:4] z8 | 
[V:1] c4B3G | 
[V:2] e2a4g2 | 
[V:3] z8 | 
[V:4] z8 | 
[V:1] A2c4B2 | 
[V:2] f2e2d4 | 
[V:3] z8 | 
[V:4] z4G,4 | 
[V:1] c8 | 
[V:2] c3de2cd | 
[V:3] z8 | 
[V:4] C8 | 
[V:1] z8 | 
[V:2] efg4f2 | 
[V:3] z8 | 
[V:4] C4D4 | 
[V:1] z8 | 
[V:2] e2c2d4 | 
[V:3] z4G4 | 
[V:4] C4B,4 | 
[V:1] z8 | 
[V:2] c8 | 
[V:3] c8 | 
[V:4] C4z2C,2- | 
[V:1] z8 | 
[V:2] z8 | 
[V:3] c4d4 | 
[V:4] C,2A,2G,2F,2- | 
[V:1] z8 | 
[V:2] z8 | 
[V:3] c4B4 | 
[V:4] F,2E,2D,4 | 
[V:1] z8 | 
[V:2] z2G2AGc2- | 
[V:3] c8 | 
[V:4] C,8 | 
[V:1] z8 | 
[V:2] c2B2c2B2 | 
[V:3] d4e4- | 
[V:4] z4z2G,2 | 
[V:1] z8 | 
[V:2] c4G4 | 
[V:3] e4d4 | 
[V:4] A,G,C4B,2 | 
[V:1] z8 | 
[V:2] z2G2AGc2- | 
[V:3] e6c2 | 
[V:4] C2B,2C2A,2 | 
[V:1] z8 | 
[V:2] c2B2c4 | 
[V:3] d4c4- | 
[V:4] G,4C,4- | 
[V:1] e4g4- | 
[V:2] z2c4BA | 
[V:3] c4z4 | 
[V:4] C,4z4 | 
[V:1] g4f4 | 
[V:2] B2c2d4 | 
[V:3] z8 | 
[V:4] z8 | 
[V:1] e6dc | 
[V:2] c8 | 
[V:3] z8 | 
[V:4] z2C4B,A, | 
[V:1] d2c4B2 | 
[V:2] z8 | 
[V:3] z8 | 
[V:4] B,2C2D4 | 
[V:1] c8 | 
[V:2] z2c4BA | 
[V:3] z4e4 | 
[V:4] C8 | 
[V:1] z8 | 
[V:2] B2c2d4 | 
[V:3] g8 | 
[V:4] z4G,4 | 
[V:1] z8 | 
[V:2] c2F2c3B | 
[V:3] f4e3d/e/ | 
[V:4] A,6G,2 | 
[V:1] z8 | 
[V:2] AGG4F2 | 
[V:3] d2c4B2 | 
[V:4] F,2E,2D,4 | 
[V:1] z4c4 | 
[V:2] G6A2 | 
[V:3] c8 | 
[V:4] C,8 | 
[V:1] d6B2 | 
[V:2] B2c2d2G2 | 
[V:3] z8 | 
[V:4] G,8- | 
[V:1] B4c3B | 
[V:2] g4e4 | 
[V:3] z4c4 | 
[V:4] G,4A,4 | 
[V:1] AGA4B2- | 
[V:2] f6d2 | 
[V:3] d6B2 | 
[V:4] D,8 | 
[V:1] BGG4A2- | 
[V:2] d4e4 | 
[V:3] B4c4 | 
[V:4] z8 | 
[V:1] AGG4^F2 | 
[V:2] d2e4dc | 
[V:3] B2G2A4 | 
[V:4] z8 | 
[V:1] G2d4cB | 
[V:2] e2d3eg2- | 
[V:3] G8 | 
[V:4] z4G,4 | 
[V:1] c4B2G2 | 
[V:2] g2f2g4 | 
[V:3] z4d4 | 
[V:4] A,4G,4 | 
[V:1] A2c4B2 | 
[V:2] f4g4 | 
[V:3] d8 | 
[V:4] z4G,4 | 
[V:1] c4z4 | 
[V:2] e3fe2d2- | 
[V:3] c4B3G | 
[V:4] A,4G,4 | 
[V:1] z8 | 
[V:2] d2c2d4 | 
[V:3] A2c4B2 | 
[V:4] F,2E,2D,4 | 
[V:1] z4G4 | 
[V:2] e8 | 
[V:3] c8 | 
[V:4] C,4z2C2- | 
[V:1] A4G4 | 
[V:2] z8 | 
[V:3] z2c2d2e2 | 
[V:4] C2B,A,B,2C2 | 
[V:1] A4G2g2- | 
[V:2] z8 | 
[V:3] f2e4dc | 
[V:4] F,2C4B,A, | 
[V:1] gfe4dc | 
[V:2] z4e4 | 
[V:3] d2e2c4 | 
[V:4] B,2C2A,4 | 
[V:1] B8 | 
[V:2] g8 | 
[V:3] d4G4 | 
[V:4] G,6F,2 | 
[V:1] B4A4- | 
[V:2] g4f3d | 
[V:3] z8 | 
[V:4] E,3D,D4 | 
[V:1] A2G2c4 | 
[V:2] e2d4c2 | 
[V:3] z4e4 | 
[V:4] C2B,2A,4 | 
[V:1] B8 | 
[V:2] d4G4- | 
[V:3] g8 | 
[V:4] G,6F,2 | 
[V:1] z8 | 
[V:2] G2ABc3A | 
[V:3] g4f3e/f/ | 
[V:4] E,3D,A,4 | 
[V:1] z8 | 
[V:2] B2A4G2 | 
[V:3] e2d4^c2 | 
[V:4] G,2F,2E,4 | 
[V:1] z8 | 
[V:2] A6B2 | 
[V:3] d8 | 
[V:4] D,3E,F,2G,2 | 
[V:1] z8 | 
[V:2] G2c4A2 | 
[V:3] e4c4- | 
[V:4] E,2A,4F,2 | 
[V:1] z8 | 
[V:2] G2c3Bd2 | 
[V:3] c4f4 | 
[V:4] E,2A,4D,E, | 
[V:1] z8 | 
[V:2] A2c3BG2 | 
[V:3] f4e4 | 
[V:4] F,G,A,3G,E,2 | 
[V:1] z4z2G2 | 
[V:2] A2B2G2c2- | 
[V:3] d4e4- | 
[V:4] F,2G,2C,4- | 
[V:1] c3dedf2- | 
[V:2] cdefg2a2 | 
[V:3] e4z4 | 
[V:4] C,4z4 | 
[V:1] fee4d2 | 
[V:2] e4f4 | 
[V:3] z8 | 
[V:4] z8 | 
[V:1] e2c4BA | 
[V:2] e8 | 
[V:3] z8 | 
[V:4] z4A,4 | 
[V:1] G8 | 
[V:2] z4e4 | 
[V:3] z8 | 
[V:4] C8 | 
[V:1] z8 | 
[V:2] g6f2 | 
[V:3] z8 | 
[V:4] C4B,4- | 
[V:1] z8 | 
[V:2] d2e2c4 | 
[V:3] z4e4 | 
[V:4] B,2G,2A,4 | 
[V:1] z4B4 | 
[V:2] d4G4 | 
[V:3] g8 | 
[V:4] G,8 | 
[V:1] d8 | 
[V:2] z8 | 
[V:3] g4f4- | 
[V:4] z8 | 
[V:1] d4c4 | 
[V:2] z8 | 
[V:3] f2d2e4 | 
[V:4] z8 | 
[V:1] B2A4GF | 
[V:2] z8 | 
[V:3] d8 | 
[V:4] z8 | 
[V:1] G2C4c2- | 
[V:2] z8 | 
[V:3] e4c4- | 
[V:4] z8 | 
[V:1] c2B2A4 | 
[V:2] z8 | 
[V:3] c4f4 | 
[V:4] z8 | 
[V:1] G3EF2G2 | 
[V:2] z8 | 
[V:3] e4d2B2 | 
[V:4] z8 | 
[V:1] E2G4FE | 
[V:2] z4G3A | 
[V:3] c4B4- | 
[V:4] z8 | 
[V:1] D8 | 
[V:2] Bcd2B2d2 | 
[V:3] B4d4 | 
[V:4] z2G,3A,B,C | 
[V:1] z8 | 
[V:2] G4z2d2 | 
[V:3] B8 | 
[V:4] D2B,2D2G,2 | 
[V:1] z8 | 
[V:2] e4d2g2- | 
[V:3] c4B3A | 
[V:4] C,D,E,F,G,2E,2 | 
[V:1] z8 | 
[V:2] g2e2f3g | 
[V:3] B2c4B2 | 
[V:4] G,2C,2D,4 | 
[V:1] z2C3DEF | 
[V:2] e4c3d | 
[V:3] c8- | 
[V:4] C,8- | 
[V:1] G2E2G2C2 | 
[V:2] efg2e2g2 | 
[V:3] c8 | 
[V:4] C,8 | 
[V:1] G3ABcd2- | 
[V:2] cdefg2G2 | 
[V:3] z8 | 
[V:4] z8 | 
[V:1] dcc4B2 | 
[V:2] B2c2d4 | 
[V:3] z8 | 
[V:4] z8 | 
[V:1] c8 | 
[V:2] c8- | 
[V:3] z4e4 | 
[V:4] z8 | 
[V:1] z8 | 
[V:2] c8 | 
[V:3] g6fe | 
[V:4] z4E,4 | 
[V:1] z8 | 
[V:2] z8 | 
[V:3] d2e3df2- | 
[V:4] G,6D,2 | 
[V:1] z8 | 
[V:2] z8 | 
[V:3] fed4^c2 | 
[V:4] F,3G,E,4 | 
[V:1] z8 | 
[V:2] z8 | 
[V:3] d3cA2B2- | 
[V:4] D,8 | 
[V:1] z8 | 
[V:2] z8 | 
[V:3] BGG4c2- | 
[V:4] E,3C,C,4 | 
[V:1] z8 | 
[V:2] z8 | 
[V:3] cdecd2f2- | 
[V:4] C4B,2A,2- | 
[V:1] z8 | 
[V:2] z8 | 
[V:3] fee4d2 | 
[V:4] A,G,F,E,F,4 | 
[V:1] z4e4 | 
[V:2] z8 | 
[V:3] e8- | 
[V:4] E,8- | 
[V:1] g6fe | 
[V:2] z4e4 | 
[V:3] e8 | 
[V:4] E,8 | 
[V:1] d2e3df2- | 
[V:2] g6d2 | 
[V:3] z8 | 
[V:4] z8 | 
[V:1] fed4^c2 | 
[V:2] f3ge4 | 
[V:3] z8 | 
[V:4] z8 | 
[V:1] d6e2- | 
[V:2] d4g3c | 
[V:3] z8 | 
[V:4] z8 | 
[V:1] ecc4f2- | 
[V:2] c2f2e2d2- | 
[V:3] z8 | 
[V:4] z8 | 
[V:1] f2ede2d2- | 
[V:2] d2cBc2d2 | 
[V:3] z8 | 
[V:4] z8 | 
[V:1] d2cBc3d | 
[V:2] G4A4 | 
[V:3] z8 | 
[V:4] z8 | 
[V:1] B2d4B2 | 
[V:2] G4z2g2 | 
[V:3] z8 | 
[V:4] z8 | 
[V:1] c2d4G2 | 
[V:2] e2f2g4 | 
[V:3] z8 | 
[V:4] z8 | 
[V:1] AGc4B2 | 
[V:2] c4d4 | 
[V:3] z8 | 
[V:4] z8 | 
[V:1] c4z4 | 
[V:2] c8 | 
[V:3] z8 | 
[V:4] z8 | 
[V:1] G4A4 | 
[V:2] z2c4d2- | 
[V:3] z8 | 
[V:4] z8 | 
[V:1] B2c4c2 | 
[V:2] d2e2f4 | 
[V:3] z8 | 
[V:4] z8 | 
[V:1] d4B2c2- | 
[V:2] f2g4e2 | 
[V:3] z8 | 
[V:4] z8 | 
[V:1] cBAGA2B2- | 
[V:2] f3edcd2 | 
[V:3] z8 | 
[V:4] z8 | 
[V:1] B2G2A4 | 
[V:2] edg4^f2 | 
[V:3] z8 | 
[V:4] z8 | 
[V:1] G4z2G2- | 
[V:2] g8 | 
[V:3] z8 | 
[V:4] z8 | 
[V:1] G2A4B2 | 
[V:2] c4d4 | 
[V:3] z8 | 
[V:4] z8 | 
[V:1] c4c2d2- | 
[V:2] e2f4f2 | 
[V:3] z8 | 
[V:4] z8 | 
[V:1] d2B2c4 | 
[V:2] g4e2f2- | 
[V:3] z8 | 
[V:4] z8 | 
[V:1] d2e2c2d2 | 
[V:2] f2g2a2f2 | 
[V:3] z8 | 
[V:4] z8 | 
[V:1] B4c2d2- | 
[V:2] g2e4f2 | 
[V:3] z8 | 
[V:4] z8 | 
[V:1] dcBAB2G2 | 
[V:2] g3fede2 | 
[V:3] z8 | 
[V:4] z8 | 
[V:1] AGc4B2 | 
[V:2] c2e2d4 | 
[V:3] z8 | 
[V:4] z8 | 
[V:1] c8 | 
[V:2] c6BA | 
[V:3] z8 | 
[V:4] z8 | 
[V:1] z4c4 | 
[V:2] B4c4 | 
[V:3] G4A4- | 
[V:4] z4C,4 | 
[V:1] f4f4 | 
[V:2] z4F4 | 
[V:3] A4B4 | 
[V:4] D,4D,4 | 
[V:1] e6c2 | 
[V:2] G4g4 | 
[V:3] c8 | 
[V:4] C,4C,4 | 
[V:1] c4f4- | 
[V:2] a6f2 | 
[V:3] c4d4- | 
[V:4] F,6D,2 | 
[V:1] f2d2d4 | 
[V:2] f4z2g2- | 
[V:3] d4B4 | 
[V:4] D,4G,4 | 
[V:1] e8 | 
[V:2] gfede4 | 
[V:3] c6A2 | 
[V:4] z4C,4 | 
[V:1] z8 | 
[V:2] z8 | 
[V:3] A4B4 | 
[V:4] D,3C,D,2E,2 | 
[V:1] z8 | 
[V:2] z8 | 
[V:3] A2G2A4 | 
[V:4] F,2G,3^F,F,E, | 
[V:1] z4d4 | 
[V:2] z2d2g3f | 
[V:3] G4z4 | 
[V:4] G,8 | 
[V:1] g4e4 | 
[V:2] e2d2c3B | 
[V:3] G4A4- | 
[V:4] z4C,4 | 
[V:1] f6f2 | 
[V:2] AGF3EF2 | 
[V:3] A4B4 | 
[V:4] D,4D,4 | 
[V:1] e6c2 | 
[V:2] G4g4 | 
[V:3] c8 | 
[V:4] C,4C,4 | 
[V:1] c4f4- | 
[V:2] a6f2 | 
[V:3] c4d4- | 
[V:4] F,6D,2 | 
[V:1] f2d2d3e | 
[V:2] f4z2b2 | 
[V:3] d4B4 | 
[V:4] D,4G,4 | 
[V:1] f2e4dc | 
[V:2] a2g3^f^fe | 
[V:3] c8 | 
[V:4] A,4A,4 | 
[V:1] B8 | 
[V:2] g8- | 
[V:3] d4e4- | 
[V:4] G,3F,E,D,E,2 | 
[V:1] z8 | 
[V:2] g8 | 
[V:3] e2c2d4 | 
[V:4] C,4G,4 | 
[V:1] z4A4 | 
[V:2] e4f4 | 
[V:3] c3Bc2d2- | 
[V:4] A,3G,F,E,F,2 | 
[V:1] B4G4 | 
[V:2] d4e4- | 
[V:3] dcBAB2G2 | 
[V:4] G,3F,E,D,E,2 | 
[V:1] c4d4 | 
[V:2] e2c2f4 | 
[V:3] AGc4B2 | 
[V:4] C,2E,2D,4 | 
[V:1] e3fg2c2- | 
[V:2] e8- | 
[V:3] c8- | 
[V:4] C,8- | 
[V:1] cBG2A4 | 
[V:2] e8- | 
[V:3] c8- | 
[V:4] C,8- | 
[V:1] G8 ||  
[V:2] e8 ||  
[V:3] c8 ||  
[V:4] C,8 ||  
[V:1] [M:3/3](3c4g6f2 | 
[V:2] [M:2/1]z8 | 
[V:3] [M:3/3](3z4z4c4 | 
[V:4] [M:2/1]z8 | 
[V:1] (3e4d4B4 | 
[V:2] z8 | 
[V:3] (3:2:2g8g4 | 
[V:4] z8 | 
[V:1] (3c4B4A4 | 
[V:2] z8 | 
[V:3] (3a4g4f4 | 
[V:4] z8 | 
[V:1] (3:2:2G8c4 | 
[V:2] z8 | 
[V:3] (3:2:2g8a4 | 
[V:4] z8 | 
[V:1] (3:2:2d8e4 | 
[V:2] z8 | 
[V:3] (3:2:2b8g4 | 
[V:4] z8 | 
[V:1] (3:2:2c8d4 | 
[V:2] z8 | 
[V:3] (3:2:2a8f4 | 
[V:4] z8 | 
[V:1] (3:2:2B8A4 | 
[V:2] z8 | 
[V:3] (3:2:2g8a4 | 
[V:4] z8 | 
[V:1] (3:2:2e8e4 | 
[V:2] z8 | 
[V:3] (3:2:2c'8c'4 | 
[V:4] z8 | 
[V:1] (3d4e4f4 | 
[V:2] z8 | 
[V:3] (3b4g4a4 | 
[V:4] z8 | 
[V:1] (3:2:2g8f4 | 
[V:2] z8 | 
[V:3] (3:2:2g8a4 | 
[V:4] z8 | 
[V:1] (3e4d6c2 | 
[V:2] z8 | 
[V:3] (3:2:2g8f4 | 
[V:4] z8 | 
[V:1] (3:2:2c8B4 | 
[V:2] z8 | 
[V:3] (3e4c4d4 | 
[V:4] z8 | 
[V:1] (3c4g6f2 | 
[V:2] z8 | 
[V:3] (3:2:2c8e4 | 
[V:4] z8 | 
[V:1] (3e4d6c2 | 
[V:2] z8 | 
[V:3] (3:2:2g8e4 | 
[V:4] z8 | 
[V:1] (3:2:2c8B4 | 
[V:2] z8 | 
[V:3] (3f4e4d4 | 
[V:4] z8 | 
[V:1] [M:2/1]c8- | 
[V:2] z4c4 | 
[V:3] [M:2/1]c8 | 
[V:4] z8 | 
[V:1] c8 | 
[V:2] g6fe | 
[V:3] c4g4- | 
[V:4] z4C,4 | 
[V:1] z8 | 
[V:2] d2G2B3c | 
[V:3] g2fed2G2 | 
[V:4] G,8 | 
[V:1] z8 | 
[V:2] d2e4dc | 
[V:3] B4c4 | 
[V:4] G,4A,4 | 
[V:1] z8 | 
[V:2] B2G2A4 | 
[V:3] d2e2fedc | 
[V:4] G,4F,4 | 
[V:1] z8 | 
[V:2] G2d3cdB | 
[V:3] B8 | 
[V:4] G,8 | 
[V:1] z8 | 
[V:2] c2BAG4 | 
[V:3] z4z2d2- | 
[V:4] A,4B,4- | 
[V:1] z8 | 
[V:2] z8 | 
[V:3] dcdBc2BA | 
[V:4] B,4A,4 | 
[V:1] z8 | 
[V:2] GABcd2e2- | 
[V:3] G4z4 | 
[V:4] B,6G,2 | 
[V:1] z8 | 
[V:2] e2dce2d2 | 
[V:3] z4GABc | 
[V:4] A,4G,4- | 
[V:1] z8 | 
[V:2] z8 | 
[V:3] d2e4dc | 
[V:4] G,4A,4 | 
[V:1] z8 | 
[V:2] z2cdefg2- | 
[V:3] e3fg4 | 
[V:4] C8 | 
[V:1] z8 | 
[V:2] g2fed4 | 
[V:3] z4GABc | 
[V:4] C4B,4- | 
[V:1] z8 | 
[V:2] z8 | 
[V:3] dGg3e^f2 | 
[V:4] B,2G,2A,4 | 
[V:1] z8 | 
[V:2] GABcdGg2- | 
[V:3] g4z4 | 
[V:4] G,8 | 
[V:1] z8 | 
[V:2] ge^f2g2GA | 
[V:3] z4GABc | 
[V:4] A,4G,4- | 
[V:1] z8 | 
[V:2] Bcd3cAB | 
[V:3] d3cABcd | 
[V:4] G,4F,4 | 
[V:1] z8 | 
[V:2] cdefg2a2- | 
[V:3] efg2G2c2- | 
[V:4] E,6C,2 | 
[V:1] z8 | 
[V:2] a2gfe2cd | 
[V:3] cAB2c2g2- | 
[V:4] D,4C,4- | 
[V:1] z8 | 
[V:2] efg4fe | 
[V:3] gfe4dc | 
[V:4] C,4E,4 | 
[V:1] z8 | 
[V:2] d4z2G2- | 
[V:3] B8 | 
[V:4] G,8 | 
[V:1] z8 | 
[V:2] GABcAGd2- | 
[V:3] z8 | 
[V:4] E,4F,4 | 
[V:1] z8 | 
[V:2] dcc4B2 | 
[V:3] z8 | 
[V:4] E,2C,2D,4 | 
[V:1] z8 | 
[V:2] c8- | 
[V:3] z4e4 | 
[V:4] C,8- | 
[V:1] z4z2G2- | 
[V:2] c8 | 
[V:3] g6e2 | 
[V:4] C,8 | 
[V:1] GABcAGd2- | 
[V:2] z8 | 
[V:3] e4f4 | 
[V:4] z8 | 
[V:1] dcc4B2 | 
[V:2] z8 | 
[V:3] e2c2d4 | 
[V:4] z8 | 
[V:1] [M:3/1]c4G2A4A2 | 
[V:2] [M:3/1]z2z2c2A4c2 | 
[V:3] [M:3/1]c6z2z2f2 | 
[V:4] [M:3/1]z2z2C,2F,4F,2 | 
[V:1] B4A2c4A2 | 
[V:2] B3Gd2c6 | 
[V:3] d4f2e4f2 | 
[V:4] G,4D,2A,4F,2 | 
[V:1] B4B2c2A2B2 | 
[V:2] z2z2g2e3fg2 | 
[V:3] d4e2c4d2 | 
[V:4] G,4G,2A,4G,2 | 
[V:1] c4z2z6 | 
[V:2] c4d2e4c2 | 
[V:3] A4B2c4e2 | 
[V:4] F,3E,D,2C,6- | 
[V:1] z2z2e2g4a2 | 
[V:2] c4c2c4F2 | 
[V:3] g4a2g4f2 | 
[V:4] C,6z6 | 
[V:1] g4f2e4d2 | 
[V:2] c4z2g4g2 | 
[V:3] e4d2c4B2 | 
[V:4] z6C,4G,2 | 
[V:1] c4B2c4d2 | 
[V:2] g2a2f2g6 | 
[V:3] c4d2e4f2 | 
[V:4] E,2F,2D,2C,4z2 | 
[V:1] e4f2e3cd2 | 
[V:2] z2z2f2g2a2g2 | 
[V:3] e3cd2c3AB2 | 
[V:4] z6z6 | 
[V:1] c3AB2c4G2 | 
[V:2] e2f2d2c6 | 
[V:3] c4z2z6 | 
[V:4] z6z6 | 
[V:1] c4A2B4c2 | 
[V:2] z6z6 | 
[V:3] c2f4d2e4 | 
[V:4] z6z6 | 
[V:1] A4B2G3EF2 | 
[V:2] z6z6 | 
[V:3] f2d4e2c2d2 | 
[V:4] z6z6 | 
[V:1] E3CD2C2G3A | 
[V:2] z6z2z2c2 | 
[V:3] c3AB2c6 | 
[V:4] z6z2z2C,2 | 
[V:1] B2G2c2B4z2 | 
[V:2] d2e2c2d2e2A2 | 
[V:3] z2z2c2g4a2 | 
[V:4] G,4A,2G,3E,F,2 | 
[V:1] z6z2z2d2 | 
[V:2] B3cd2G2A2B2 | 
[V:3] g3ef2e4d2 | 
[V:4] E,4D,2C,4B,,2 | 
[V:1] e4d2c3BA2 | 
[V:2] G6z6 | 
[V:3] c4B2c4d2 | 
[V:4] C,4G,2A,3E,F,2 | 
[V:1] G4g2f3ed2 | 
[V:2] z2z2g2a2f2g2 | 
[V:3] e6z6 | 
[V:4] E,6z6 | 
[V:1] c2A2B2c4z2 | 
[V:2] e2f2d2c4z2 | 
[V:3] z2z2g2e2f2d2 | 
[V:4] z2z2G,2A,2F,2G,2 | 
[V:1] z6z2z2g2 | 
[V:2] z6z2z2g2 | 
[V:3] c3AB2c6 | 
[V:4] E,2F,2D,2C,6 | 
[V:1] f3ed2c2A2B2 | 
[V:2] a2f2g2e2f2d2 | 
[V:3] z6z6 | 
[V:4] z6z6 | 
[V:1] [M:2/1]c8 | 
[V:2] [M:2/1]c8 | 
[V:3] [M:2/1]z4z2c2 | 
[V:4] [M:2/1]z4z2C,2 | 
[V:1] z8 | 
[V:2] z8 | 
[V:3] e4f4 | 
[V:4] G,4A,4 | 
[V:1] z4z2c2 | 
[V:2] z4c4 | 
[V:3] g4e2f2- | 
[V:4] G,4A,4 | 
[V:1] e4f4 | 
[V:2] g4a4 | 
[V:3] fee4d2 | 
[V:4] E,2G,2F,4 | 
[V:1] g4e2f2- | 
[V:2] g4a4 | 
[V:3] e4z4 | 
[V:4] E,4z4 | 
[V:1] fee4d2 | 
[V:2] e2g2f4 | 
[V:3] z8 | 
[V:4] z8 | 
[V:1] e4g4 | 
[V:2] e8 | 
[V:3] z8 | 
[V:4] z4z2C2 | 
[V:1] f2g4fe | 
[V:2] z4z2c2 | 
[V:3] z4g4 | 
[V:4] D2B,2C4 | 
[V:1] d4e2f2- | 
[V:2] d2B2c2d2- | 
[V:3] f2g4fe | 
[V:4] z8 | 
[V:1] f2edc4 | 
[V:2] d2cBA2a2 | 
[V:3] d4e2f2- | 
[V:4] z4z2A,2 | 
[V:1] d2e4dc | 
[V:2] d2g3e^f2 | 
[V:3] f2edc4 | 
[V:4] B,2C2A,4 | 
[V:1] !fermata!B8- | 
[V:2] !fermata!g8- | 
[V:3] d4e4 | 
[V:4] !fermata!G,8- | 
[V:1] B8 | 
[V:2] g8 | 
[V:3] !fermata!d8 | 
[V:4] G,8 | 
[V:1] !fermata!c8 | 
[V:2] !fermata!e8 | 
[V:3] !fermata!c8 | 
[V:4] !fermata!C,8 | 
[V:1] c8 |]  
[V:2] e8 |]  
[V:3] c8 |]  
[V:4] C,8 |]  



